!!!OTL: Es ist das Heil uns kommen her.
!!!ARE: Europa, Mitteleuropa, Deutschland
!!!SCT: A0624
!!!TXL: @@GMH
!!!YEM: Copyright 1995, estate of Helmut Schaffrath.
**kern	**text
!! Mixed meters:  4/1; 6/1
*M6/1	*
*met(c|)	*
*clefC3	*
*k[]	*
*G:mix	*
!LO:TX:a:t=mixolyd.	!
!LO:TX:a:t=P:1r, 2r in the source:problem	!
2ryy	.
{2d	Es
=1	=1
*M4/1	*
1d	iſt
1d	das
1d	heyl
1f	vns
=2	=2
1e	kom-
1d	-men
1c	her
2r}	.
{2d	von
=3	=3
1B	gnad
1G	vnd
1B	laut-
1c	-ter
=4	=4
*M6/1	*
*lig	*
0d	gü-
0e	.
*Xlig	*
1d}	-te;}
{2r	.
2d	Die
=5	=5
*M4/1	*
1d	werck
1d	die
1d	helf-
1f	-fen
=6	=6
1e	nymmer-
1d	.
1c	-mehr,
2r}	.
{2d	ſie
=7	=7
1B	mü-
1G	-gen
1B	nicht
1c	be-
=8	=8
*M6/1	*
*lig	*
0d	gü-
0e	.
*Xlig	*
1d	-ten,}
2r}	.
{2d	Der
=9	=9
*M4/1	*
1.g	glaub
2f	ſicht
1e	Jhe-
1d	-ſum
=10	=10
1g	Chriſtum
1e	.
1d	an,
2r}	.
{2d	der
=11	=11
1.g	hat
2c	gnug
1d	für
1G	vns
=12	=12
1B	all
1d	ge-
1B	-than,
2r}	.
{2G	er
=13	=13
1A	iſt
1c	der
1B	mit-
1A	-ler
=14	=14
*M6/1	*
*lig	*
0E	wor-
0A	.
*Xlig	*
1G/ll}	-den.
==	==
!!!GTL: Geistliche Volkslieder
!!!AGN: Romanze, Ballade, Lied, religioeses Lied
!! Luth. Gsgb 1524.
!!!ONB: ESAC (Essen Associative Code) Database: ALTDEU
!!!AMT: irregular
!!!AIN: vox
!!!EED: Helmut Schaffrath
!!!EEV: 1.0
!!!RDF**kern: l = terminal long
!!!AMD: Mixolydian
!!!URL-scan: https://rosdok.uni-rostock.de/mcrviewer/recordIdentifier/rosdok_ppn738218359/iview2/phys_0805.iview2?x=113.63509606070716&y=1004.9987516100518&scale=0.7106933083589261&rotation=0&layout=singlePageLayout&logicalDiv=log_0007
!!!ENC: Anna Maria Matuszewska
!!!EEV: 2024/25/03
*-	*-
